format-page-split.svg

<svg fill="currentColor" viewBox="0 0 24 24"><path d="M11 11V7h2v4zm2-10v4h-2V1zm-2 16v-4h2v4zm-2 3H6V4h3V2H6a2 2 0 0 0-2 2v16c0 1.11.89 2 2 2h3zm6-17v5h3v12h-3v2h3c1.11 0 2-.89 2-2V8zm-2 16h-2v4h2z"/></svg>

<svg  viewBox="0 0 24 24" fill="currentColor"><path  d="M11 11V7H13V11H11M13 1V5H11V1H13M11 17V13H13V17H11M9 20H6V4H9V2H6C4.89 2 4 2.9 4 4V20C4 21.11 4.89 22 6 22H9V20M15 3V8H18V20H15V22H18C19.11 22 20 21.11 20 20V8L15 3M13 19H11V23H13V19Z"/></svg>
